;FLAVOR:Marlin
;TIME:7058
;Filament used: 4.46423m
;Layer height: 0.2
;MINX:62.707
;MINY:34.361
;MINZ:0.2
;MAXX:155.291
;MAXY:185.65
;MAXZ:23
;Generated with Creality Slicer 4.8.2-218
M140 S60
M105
M190 S60
M104 S200
M105
M109 S200
M82 ;absolute extrusion mode

G28 ;Home

G92 E0 ;Reset Extruder
G1 Z2.0 F3000 ;Move Z Axis up
G1 X10.1 Y20 Z0.28 F5000.0 ;Move to start position
G1 X10.1 Y200.0 Z0.28 F1500.0 E15 ;Draw the first line
G1 X10.4 Y200.0 Z0.28 F5000.0 ;Move to side a little
G1 X10.4 Y20 Z0.28 F1500.0 E30 ;Draw the second line
G92 E0 ;Reset Extruder
G1 Z2.0 F3000 ;Move Z Axis up

G92 E0
G92 E0
G1 F2700 E-5
;LAYER_COUNT:115
;LAYER:0
M107
G0 F6000 X65.161 Y42.721 Z0.2
;TYPE:SKIRT
G1 F2700 E0
G1 F1200 X65.467 Y42.272 E0.01807
G1 X65.975 Y41.611 E0.0458
G1 X66.108 Y41.451 E0.05272
G1 X66.412 Y41.101 E0.06814
G1 X66.651 Y40.837 E0.07998
G1 X67.375 Y40.109 E0.11413
G1 X67.781 Y39.737 E0.13245
G1 X68.069 Y39.481 E0.14526
G1 X68.24 Y39.335 E0.15274
G1 X68.679 Y38.98 E0.17152
G1 X68.826 Y38.867 E0.17769
G1 X69.226 Y38.574 E0.19418
G1 X69.542 Y38.353 E0.207
G1 X70.115 Y37.978 E0.22978
G1 X70.672 Y37.638 E0.25148
G1 X71.11 Y37.384 E0.26832
G1 X71.427 Y37.21 E0.28035
G1 X71.846 Y36.992 E0.29606
G1 X72.238 Y36.801 E0.31056
G1 X72.649 Y36.609 E0.32565
G1 X72.977 Y36.462 E0.33761
G1 X73.241 Y36.349 E0.34716
G1 X73.685 Y36.17 E0.36308
G1 X74.003 Y36.05 E0.37439
G1 X74.352 Y35.926 E0.3867
G1 X75.177 Y35.646 E0.41568
G1 X75.574 Y35.519 E0.42955
G1 X75.933 Y35.416 E0.44197
G1 X76.649 Y35.223 E0.46663
G1 X76.983 Y35.139 E0.47809
G1 X77.347 Y35.053 E0.49053
G1 X77.658 Y34.984 E0.50112
G1 X78.105 Y34.892 E0.5163
G1 X78.437 Y34.829 E0.52754
G1 X78.891 Y34.75 E0.54287
G1 X79.168 Y34.705 E0.5522
G1 X79.621 Y34.638 E0.56743
G1 X79.914 Y34.599 E0.57726
G1 X80.437 Y34.536 E0.59478
G1 X80.764 Y34.502 E0.60572
G1 X81.174 Y34.465 E0.61941
G1 X81.459 Y34.443 E0.62892
G1 X82.083 Y34.403 E0.64971
G1 X82.373 Y34.388 E0.65937
G1 X82.718 Y34.375 E0.67086
G1 X83.018 Y34.368 E0.68084
G1 X83.696 Y34.361 E0.70339
G1 X83.989 Y34.361 E0.71313
G1 X84.296 Y34.366 E0.72335
G1 X84.568 Y34.374 E0.7324
G1 X85.25 Y34.402 E0.7551
G1 X85.554 Y34.419 E0.76523
G1 X85.83 Y34.438 E0.77443
G1 X86.09 Y34.459 E0.7831
G1 X86.662 Y34.512 E0.80221
G1 X86.968 Y34.545 E0.81245
G1 X87.398 Y34.597 E0.82685
G1 X87.695 Y34.637 E0.83682
G1 X88.253 Y34.72 E0.85558
G1 X88.555 Y34.769 E0.86576
G1 X88.916 Y34.833 E0.87795
G1 X89.201 Y34.887 E0.8876
G1 X91.331 Y35.324 E0.95992
G1 X93.831 Y35.794 E1.04453
G1 X96.311 Y36.186 E1.12804
G1 X98.852 Y36.516 E1.21326
G1 X101.325 Y36.765 E1.29593
G1 X103.837 Y36.947 E1.3797
G1 X106.321 Y37.056 E1.46239
G1 X108.886 Y37.097 E1.54772
G1 X111.377 Y37.065 E1.63058
G1 X113.887 Y36.963 E1.71413
G1 X116.419 Y36.787 E1.79855
G1 X118.908 Y36.544 E1.88172
G1 X121.418 Y36.227 E1.96587
G1 X123.892 Y35.843 E2.04914
G1 X127.046 Y35.251 E2.15587
G1 X128.808 Y34.888 E2.21571
G1 X129.12 Y34.829 E2.22627
G1 X129.546 Y34.754 E2.24066
G1 X129.854 Y34.704 E2.25104
G1 X130.31 Y34.637 E2.26637
G1 X130.596 Y34.599 E2.27596
G1 X131.12 Y34.536 E2.29352
G1 X131.444 Y34.502 E2.30435
G1 X131.854 Y34.465 E2.31804
G1 X132.139 Y34.443 E2.32755
G1 X132.763 Y34.403 E2.34835
G1 X133.053 Y34.388 E2.35801
G1 X133.398 Y34.375 E2.36949
G1 X133.698 Y34.368 E2.37947
G1 X134.376 Y34.361 E2.40202
G1 X134.669 Y34.361 E2.41177
G1 X134.977 Y34.366 E2.42201
G1 X135.25 Y34.374 E2.4311
G1 X135.931 Y34.402 E2.45376
G1 X136.232 Y34.419 E2.46379
G1 X136.509 Y34.438 E2.47303
G1 X136.774 Y34.459 E2.48187
G1 X137.398 Y34.517 E2.50271
G1 X137.688 Y34.548 E2.51241
G1 X138.022 Y34.588 E2.5236
G1 X138.327 Y34.629 E2.53384
G1 X138.86 Y34.708 E2.55176
G1 X139.164 Y34.757 E2.562
G1 X139.633 Y34.84 E2.57784
G1 X139.92 Y34.895 E2.58756
G1 X140.365 Y34.986 E2.60267
G1 X140.712 Y35.063 E2.61449
G1 X141.207 Y35.181 E2.63141
G1 X141.527 Y35.262 E2.64239
G1 X141.834 Y35.345 E2.65297
G1 X142.12 Y35.427 E2.66287
G1 X142.694 Y35.599 E2.6828
G1 X143.066 Y35.717 E2.69578
G1 X143.19 Y35.759 E2.70013
G1 X143.49 Y35.866 E2.71072
G1 X144.298 Y36.166 E2.73939
G1 X144.603 Y36.284 E2.75027
G1 X144.82 Y36.372 E2.75806
G1 X145.186 Y36.528 E2.77129
G1 X145.418 Y36.632 E2.77975
G1 X145.829 Y36.827 E2.79488
G1 X146.32 Y37.072 E2.81313
G1 X146.72 Y37.281 E2.82814
G1 X147.118 Y37.504 E2.84331
G1 X147.386 Y37.661 E2.85364
G1 X147.667 Y37.831 E2.86457
G1 X148.235 Y38.2 E2.88709
G1 X148.765 Y38.567 E2.90854
G1 X149.086 Y38.797 E2.92167
G1 X149.252 Y38.921 E2.92856
G1 X149.705 Y39.279 E2.94776
G1 X149.848 Y39.398 E2.95395
G1 X150.228 Y39.729 E2.97071
G1 X150.515 Y39.991 E2.98364
G1 X151.189 Y40.662 E3.01527
G1 X151.563 Y41.068 E3.03363
G1 X152.099 Y41.695 E3.06107
G1 X152.3 Y41.949 E3.07184
G1 X152.881 Y42.756 E3.10491
G1 X153.066 Y43.039 E3.11616
G1 X153.709 Y44.161 E3.15917
G1 X153.968 Y44.682 E3.17852
G1 X154.183 Y45.14 E3.19535
G1 X154.53 Y46.011 E3.22653
G1 X154.718 Y46.599 E3.24707
G1 X154.778 Y46.807 E3.25427
G1 X154.92 Y47.336 E3.27248
G1 X155.12 Y48.252 E3.30367
G1 X155.213 Y48.9 E3.32544
G1 X155.225 Y49.006 E3.32899
G1 X155.291 Y49.941 E3.36016
G1 X155.277 Y50.879 E3.39137
G1 X155.183 Y51.812 E3.42256
G1 X154.936 Y53.03 E3.46389
G1 X154.789 Y53.593 E3.48324
G1 X154.171 Y56.099 E3.56909
G1 X153.63 Y58.587 E3.65378
G1 X153.178 Y61.016 E3.73595
G1 X152.78 Y63.529 E3.82058
G1 X152.459 Y66.014 E3.90391
G1 X152.205 Y68.54 E3.98835
G1 X152.026 Y71.009 E4.07069
G1 X151.916 Y73.55 E4.15528
G1 X151.876 Y76.082 E4.23951
G1 X151.908 Y78.563 E4.32203
G1 X152.013 Y81.096 E4.40635
G1 X152.187 Y83.607 E4.49007
G1 X152.435 Y86.141 E4.57475
G1 X152.47 Y86.441 E4.5848
G1 X152.521 Y86.938 E4.60141
G1 X152.577 Y87.893 E4.63323
G1 X152.59 Y88.847 E4.66497
G1 X152.59 Y93.36 E4.81507
G1 X152.578 Y94.921 E4.86699
G1 X152.577 Y114.1 E5.50489
G1 X152.567 Y114.802 E5.52824
G1 X152.514 Y115.738 E5.55942
G1 X152.401 Y116.553 E5.58678
G1 X152.245 Y117.299 E5.61213
G1 X151.974 Y118.396 E5.64972
G1 X151.814 Y119.014 E5.67095
G1 X151.253 Y121.451 E5.75412
G1 X150.756 Y123.925 E5.83805
G1 X150.337 Y126.383 E5.92099
G1 X149.978 Y128.913 E6.00598
G1 X149.697 Y131.396 E6.08909
G1 X149.486 Y133.874 E6.17181
G1 X149.345 Y136.373 E6.25506
G1 X149.262 Y140.307 E6.38593
G1 X149.262 Y145.361 E6.55403
G1 X149.266 Y151.029 E6.74254
G1 X149.247 Y152.44 E6.78948
G1 X149.207 Y153.878 E6.83733
G1 X149.207 Y156.429 E6.92217
G1 X149.236 Y157.729 E6.96542
G1 X149.263 Y158.642 E6.9958
G1 X149.268 Y158.969 E7.00668
G1 X149.266 Y164.406 E7.18751
G1 X149.241 Y166.089 E7.2435
G1 X149.211 Y167.147 E7.2787
G1 X149.201 Y168.481 E7.32307
G1 X149.2 Y174.065 E7.50879
G1 X149.19 Y174.792 E7.53298
G1 X149.137 Y175.729 E7.56419
G1 X149.005 Y176.657 E7.59537
G1 X148.794 Y177.571 E7.62657
G1 X148.505 Y178.463 E7.65775
G1 X148.142 Y179.328 E7.68895
G1 X147.707 Y180.159 E7.72015
G1 X147.202 Y180.949 E7.75134
G1 X146.632 Y181.694 E7.78254
G1 X146.001 Y182.388 E7.81373
G1 X145.312 Y183.025 E7.84494
G1 X144.572 Y183.601 E7.87613
G1 X143.786 Y184.112 E7.90731
G1 X142.959 Y184.554 E7.9385
G1 X142.097 Y184.924 E7.9697
G1 X141.207 Y185.219 E8.00089
G1 X140.295 Y185.438 E8.03208
G1 X139.368 Y185.578 E8.06326
G1 X138.5 Y185.637 E8.0922
G1 X138.18 Y185.646 E8.10285
G1 X137.871 Y185.65 E8.11313
G1 X127.912 Y185.649 E8.44436
G1 X126.993 Y185.636 E8.47493
G1 X124.635 Y185.569 E8.55339
G1 X122.086 Y185.569 E8.63817
G1 X120.629 Y185.6 E8.68664
G1 X119.088 Y185.645 E8.73792
G1 X118.764 Y185.65 E8.7487
G1 X108.833 Y185.649 E9.079
G1 X108.134 Y185.64 E9.10225
G1 X107.198 Y185.588 E9.13343
G1 X106.269 Y185.456 E9.16464
G1 X105.355 Y185.246 E9.19583
G1 X104.463 Y184.959 E9.227
G1 X103.598 Y184.597 E9.25819
G1 X102.767 Y184.162 E9.28938
G1 X101.976 Y183.658 E9.32058
G1 X101.23 Y183.088 E9.35181
G1 X100.536 Y182.458 E9.38298
G1 X99.899 Y181.77 E9.41417
G1 X99.322 Y181.03 E9.44538
G1 X98.81 Y180.244 E9.47658
G1 X98.367 Y179.418 E9.50775
G1 X97.996 Y178.556 E9.53896
G1 X97.7 Y177.666 E9.57016
G1 X97.41 Y176.353 E9.61488
G1 X96.989 Y173.679 E9.70492
G1 X96.52 Y171.173 E9.78971
G1 X95.989 Y168.724 E9.87306
G1 X95.404 Y166.344 E9.95457
G1 X94.715 Y163.855 E10.04047
G1 X93.976 Y161.452 E10.12409
G1 X93.17 Y159.068 E10.20779
G1 X92.296 Y156.71 E10.29143
G1 X91.356 Y154.377 E10.37509
G1 X90.349 Y152.071 E10.45878
G1 X89.278 Y149.791 E10.54257
G1 X88.146 Y147.553 E10.62598
G1 X86.947 Y145.335 E10.70984
G1 X85.682 Y143.149 E10.79384
G1 X84.375 Y141.031 E10.87662
G1 X82.964 Y138.881 E10.96216
G1 X81.549 Y136.853 E11.0444
G1 X80.036 Y134.809 E11.12899
G1 X78.494 Y132.847 E11.21198
G1 X76.878 Y130.906 E11.29599
G1 X75.222 Y129.026 E11.37932
G1 X73.492 Y127.171 E11.46368
G1 X71.719 Y125.375 E11.54762
G1 X69.872 Y123.608 E11.63264
G1 X68.892 Y122.695 E11.67719
G1 X68.233 Y122.028 E11.70837
G1 X67.634 Y121.306 E11.73957
G1 X67.098 Y120.536 E11.77078
G1 X66.63 Y119.724 E11.80195
G1 X66.233 Y118.874 E11.83315
G1 X65.909 Y117.994 E11.86434
G1 X65.662 Y117.089 E11.89554
G1 X65.493 Y116.167 E11.92672
G1 X65.391 Y114.943 E11.96757
G1 X65.382 Y114.612 E11.97858
G1 X65.378 Y114.32 E11.9883
G1 X65.365 Y94.093 E12.66105
G1 X65.366 Y88.932 E12.83271
G1 X65.376 Y88.235 E12.85589
G1 X65.426 Y87.337 E12.8858
G1 X65.498 Y86.61 E12.9101
G1 X65.669 Y85.109 E12.96035
G1 X65.885 Y82.58 E13.04477
G1 X66.027 Y80.095 E13.12756
G1 X66.099 Y77.544 E13.21244
G1 X66.1 Y75.05 E13.29539
G1 X66.029 Y72.518 E13.37964
G1 X65.889 Y70.012 E13.46312
G1 X65.675 Y67.483 E13.54753
G1 X65.396 Y65.02 E13.62997
G1 X65.036 Y62.488 E13.71504
G1 X64.616 Y60.034 E13.79784
G1 X64.132 Y57.609 E13.88009
G1 X63.332 Y54.203 E13.99646
G1 X63.047 Y53.081 E14.03496
G1 X62.854 Y52.163 E14.06616
G1 X62.741 Y51.232 E14.09735
G1 X62.707 Y50.295 E14.12854
G1 X62.751 Y49.39 E14.15867
G1 X62.772 Y49.155 E14.16652
G1 X62.895 Y48.225 E14.19772
G1 X63.044 Y47.515 E14.22185
G1 X63.082 Y47.36 E14.22716
G1 X63.206 Y46.899 E14.24304
G1 X63.304 Y46.563 E14.25468
G1 X63.605 Y45.675 E14.28586
G1 X63.823 Y45.151 E14.30474
G1 X63.925 Y44.923 E14.31305
G1 X64.08 Y44.592 E14.3252
G1 X64.18 Y44.387 E14.33279
G1 X64.82 Y43.25 E14.37619
G1 X65.161 Y42.721 E14.39712
G0 F6000 X65.498 Y42.938
G1 F1200 X65.793 Y42.503 E14.4146
G1 X66.283 Y41.867 E14.44131
G1 X66.416 Y41.707 E14.44823
G1 X66.709 Y41.369 E14.4631
G1 X66.948 Y41.105 E14.47495
G1 X67.645 Y40.404 E14.50783
G1 X68.051 Y40.032 E14.52614
G1 X68.329 Y39.786 E14.53849
G1 X68.5 Y39.64 E14.54597
G1 X68.923 Y39.297 E14.56408
G1 X69.07 Y39.184 E14.57025
G1 X69.455 Y38.902 E14.58612
G1 X69.771 Y38.681 E14.59894
G1 X70.323 Y38.319 E14.6209
G1 X70.88 Y37.979 E14.6426
G1 X71.303 Y37.735 E14.65885
G1 X71.62 Y37.561 E14.67087
G1 X72.023 Y37.35 E14.686
G1 X72.408 Y37.163 E14.70024
G1 X72.819 Y36.971 E14.71533
G1 X73.134 Y36.83 E14.72681
G1 X73.398 Y36.717 E14.73636
G1 X73.827 Y36.545 E14.75173
G1 X74.145 Y36.425 E14.76303
G1 X74.48 Y36.304 E14.77488
G1 X75.305 Y36.024 E14.80386
G1 X75.772 Y35.877 E14.82014
G1 X76.037 Y35.802 E14.8293
G1 X76.753 Y35.609 E14.85397
G1 X77.075 Y35.528 E14.86501
G1 X77.439 Y35.442 E14.87745
G1 X77.739 Y35.376 E14.88767
G1 X78.186 Y35.284 E14.90285
G1 X78.506 Y35.223 E14.91368
G1 X78.96 Y35.144 E14.92901
G1 X79.226 Y35.101 E14.93797
G1 X79.679 Y35.034 E14.9532
G1 X79.962 Y34.996 E14.9627
G1 X80.485 Y34.933 E14.98022
G1 X80.8 Y34.9 E14.99075
G1 X81.21 Y34.863 E15.00444
G1 X81.485 Y34.842 E15.01362
G1 X82.109 Y34.802 E15.03441
G1 X82.388 Y34.788 E15.04371
G1 X82.733 Y34.775 E15.05519
G1 X83.023 Y34.768 E15.06484
G1 X83.701 Y34.761 E15.08739
G1 X83.983 Y34.761 E15.09677
G1 X84.29 Y34.766 E15.10698
G1 X84.552 Y34.774 E15.1157
G1 X85.234 Y34.802 E15.1384
G1 X85.527 Y34.818 E15.14816
G1 X85.803 Y34.837 E15.15736
G1 X86.053 Y34.857 E15.1657
G1 X86.625 Y34.91 E15.18481
G1 X86.92 Y34.942 E15.19468
G1 X87.35 Y34.994 E15.20909
G1 X87.637 Y35.032 E15.21871
G1 X88.195 Y35.115 E15.23748
G1 X88.485 Y35.163 E15.24725
G1 X88.846 Y35.227 E15.25945
G1 X89.121 Y35.279 E15.26876
G1 X91.272 Y35.72 E15.34179
G1 X93.76 Y36.187 E15.42598
G1 X96.273 Y36.585 E15.51061
G1 X98.796 Y36.912 E15.59523
G1 X101.288 Y37.164 E15.67853
G1 X103.789 Y37.345 E15.76193
G1 X106.334 Y37.456 E15.84666
G1 X108.885 Y37.497 E15.93152
G1 X111.398 Y37.465 E16.01511
G1 X113.898 Y37.363 E16.09833
G1 X116.45 Y37.186 E16.18341
G1 X118.961 Y36.94 E16.26733
G1 X121.492 Y36.621 E16.35218
G1 X123.936 Y36.242 E16.43443
G1 X127.145 Y35.639 E16.54303
G1 X128.889 Y35.28 E16.60226
G1 X129.189 Y35.223 E16.61241
G1 X129.615 Y35.148 E16.6268
G1 X129.912 Y35.1 E16.63681
G1 X130.368 Y35.033 E16.65214
G1 X130.644 Y34.996 E16.6614
G1 X131.168 Y34.933 E16.67895
G1 X131.48 Y34.9 E16.68939
G1 X131.89 Y34.863 E16.70308
G1 X132.165 Y34.842 E16.71225
G1 X132.789 Y34.802 E16.73305
G1 X133.068 Y34.788 E16.74234
G1 X133.413 Y34.775 E16.75382
G1 X133.703 Y34.768 E16.76347
G1 X134.381 Y34.761 E16.78602
G1 X134.662 Y34.761 E16.79537
G1 X134.97 Y34.766 E16.80561
G1 X135.233 Y34.774 E16.81437
G1 X135.914 Y34.802 E16.83703
G1 X136.204 Y34.818 E16.84669
G1 X136.737 Y34.857 E16.86447
G1 X137.361 Y34.915 E16.88531
G1 X137.64 Y34.945 E16.89465
G1 X137.974 Y34.985 E16.90584
G1 X138.268 Y35.025 E16.9157
G1 X138.801 Y35.104 E16.93362
G1 X139.094 Y35.151 E16.94349
G1 X139.563 Y35.234 E16.95934
G1 X139.84 Y35.287 E16.96872
G1 X140.285 Y35.378 E16.98382
G1 X140.619 Y35.452 E16.9952
G1 X141.114 Y35.57 E17.01213
G1 X141.422 Y35.648 E17.02269
G1 X141.729 Y35.731 E17.03327
G1 X142.006 Y35.81 E17.04285
G1 X142.58 Y35.982 E17.06278
G1 X142.938 Y36.096 E17.07528
G1 X143.062 Y36.138 E17.07963
G1 X143.351 Y36.241 E17.08984
G1 X144.159 Y36.541 E17.1185
G1 X144.453 Y36.655 E17.12899
G1 X144.67 Y36.743 E17.13678
G1 X145.022 Y36.893 E17.14951
G1 X145.254 Y36.997 E17.15796
G1 X145.651 Y37.185 E17.17257
G1 X146.142 Y37.43 E17.19082
G1 X146.53 Y37.633 E17.20539
G1 X146.92 Y37.852 E17.22026
G1 X147.179 Y38.004 E17.23025
G1 X147.46 Y38.174 E17.24118
G1 X148.007 Y38.528 E17.26285
G1 X148.537 Y38.895 E17.28429
G1 X148.847 Y39.118 E17.29699
G1 X149.013 Y39.242 E17.30388
G1 X149.449 Y39.586 E17.32235
G1 X149.592 Y39.705 E17.32854
G1 X149.959 Y40.024 E17.34471
G1 X150.246 Y40.286 E17.35764
G1 X150.895 Y40.933 E17.38812
G1 X151.269 Y41.339 E17.40648
G1 X151.785 Y41.943 E17.4329
G1 X151.986 Y42.197 E17.44367
G1 X152.546 Y42.975 E17.47556
G1 X152.731 Y43.258 E17.4868
G1 X153.351 Y44.339 E17.52825
G1 X153.61 Y44.86 E17.5476
G1 X153.818 Y45.304 E17.56391
G1 X154.158 Y46.159 E17.59451
G1 X154.334 Y46.71 E17.61375
G1 X154.46 Y47.157 E17.6292
G1 X154.534 Y47.438 E17.63886
G1 X154.729 Y48.337 E17.66946
G1 X154.816 Y48.945 E17.68989
G1 X154.828 Y49.051 E17.69343
G1 X154.891 Y49.969 E17.72404
G1 X154.875 Y50.89 E17.75468
G1 X154.779 Y51.805 E17.78528
G1 X154.549 Y52.929 E17.82344
G1 X154.406 Y53.477 E17.84227
G1 X153.778 Y56.024 E17.92952
G1 X153.241 Y58.495 E18.01363
G1 X152.782 Y60.958 E18.09696
G1 X152.383 Y63.481 E18.18192
G1 X152.062 Y65.959 E18.26502
G1 X151.806 Y68.507 E18.3502
G1 X151.626 Y70.997 E18.43323
G1 X151.516 Y73.527 E18.51746
G1 X151.476 Y76.081 E18.60241
G1 X151.508 Y78.585 E18.6857
G1 X151.612 Y81.102 E18.76949
G1 X151.791 Y83.675 E18.85528
G1 X152.037 Y86.184 E18.93913
G1 X152.072 Y86.482 E18.94911
G1 X152.123 Y86.979 E18.96572
G1 X152.177 Y87.899 E18.99638
G1 X152.19 Y88.847 E19.02791
G1 X152.19 Y93.356 E19.17788
G1 X152.178 Y94.917 E19.2298
G1 X152.177 Y114.094 E19.86763
G1 X152.167 Y114.796 E19.89098
G1 X152.114 Y115.715 E19.9216
G1 X152.007 Y116.484 E19.94742
G1 X151.856 Y117.204 E19.97189
G1 X151.586 Y118.296 E20.0093
G1 X151.43 Y118.896 E20.02992
G1 X150.863 Y121.362 E20.11408
G1 X150.358 Y123.878 E20.19943
G1 X149.946 Y126.296 E20.28102
G1 X149.583 Y128.848 E20.36675
